X:187
T: Muede ging ein Wanderer zurueck
N: D1018
O: Europa, Mitteleuropa, Ungarn, Kom. Tolnau, Dunakoemloed
N: DVA-Signatur A 191 163
R: Liebes - Lied
M: 4/4
L: 1/8
K: G
dd | G2G2FGAA | F4z2
FG | A2A2FABB | G4z2
GB | d2d2cBAG | E4z
GGE | D2G2FAcB | G4z2

